X:13
T:Schottis efter Fl\"ojtisten Olofsson, Skillingmark
R:reil\"ander
A:V\"armland
Z:id:hn-schottis-13
M:C|
K:D
DEFG A2A2|GABc d2d2|cdef a2a2|Aaa2 Aff2|
DEFG A2A2|GABc d2d2|cdef aABc|1 d2f2 d2FE:|2 d2f2 d2B2||
|:a2f2 d2B2{cB}|AGFA d2d2|cAcd e2{f}e2|dAde f2{g}f2|
a2f2 d2B2{cB}|AGFA d2d2|dFAd cABc|d2f2 d2B2:|
|:AGFA d2d2|dFAd f2f2|Pfede Pfede|Pfedf a2{b}a2|
Pgfef g2{a}g2|f{gf}ede f2{g}f2|dABd cAce|1 d2f2 d2B2:|2 d2f2 dGFE||
